svg/SJJB-OpenStreetMapIcons/sport/golf.svg

<?xml version="1.0" encoding="UTF-8" standalone="no"?>
<!-- Created with Inkscape (http://www.inkscape.org/) -->
<svg
   xmlns:dc="http://purl.org/dc/elements/1.1/"
   xmlns:cc="http://creativecommons.org/ns#"
   xmlns:rdf="http://www.w3.org/1999/02/22-rdf-syntax-ns#"
   xmlns:svg="http://www.w3.org/2000/svg"
   xmlns="http://www.w3.org/2000/svg"
   xmlns:sodipodi="http://sodipodi.sourceforge.net/DTD/sodipodi-0.dtd"
   xmlns:inkscape="http://www.inkscape.org/namespaces/inkscape"
   version="1.0"
   width="580"
   height="580"
   id="svg2"
   sodipodi:version="0.32"
   inkscape:version="0.46"
   sodipodi:docname="sport_golf.svg"
   sodipodi:docbase="s:\Data\FacilityIcons"
   inkscape:output_extension="org.inkscape.output.svg.inkscape">
  <metadata
     id="metadata2975">
    <rdf:RDF>
      <cc:Work
         rdf:about="">
        <dc:format>image/svg+xml</dc:format>
        <dc:type
           rdf:resource="http://purl.org/dc/dcmitype/StillImage" />
			  <cc:license
           rdf:resource="http://web.resource.org/cc/PublicDomain" />
        <dc:language>en</dc:language>
      </cc:Work>
    </rdf:RDF>
  </metadata>
  <sodipodi:namedview
     inkscape:window-height="1005"
     inkscape:window-width="1280"
     inkscape:pageshadow="2"
     inkscape:pageopacity="0.0"
     guidetolerance="10.0"
     gridtolerance="10.0"
     objecttolerance="10.0"
     borderopacity="1.0"
     bordercolor="#666666"
     pagecolor="#ffffff"
     id="base"
     inkscape:zoom="0.65172414"
     inkscape:cx="290"
     inkscape:cy="290.7672"
     inkscape:window-x="-4"
     inkscape:window-y="-4"
     inkscape:current-layer="svg2"
     showgrid="false" />
  <defs
     id="defs4">
    <inkscape:perspective
       sodipodi:type="inkscape:persp3d"
       inkscape:vp_x="0 : 290 : 1"
       inkscape:vp_y="0 : 1000 : 0"
       inkscape:vp_z="580 : 290 : 1"
       inkscape:persp3d-origin="290 : 193.33333 : 1"
       id="perspective10" />
  </defs>
  <g
     id="g1327">
    <path
       d="M 66.275,1.768 C 24.94,1.768 1.704,23.139 1.704,66.804 L 1.704,516.927 C 1.704,557.771 22.599,579.156 63.896,579.156 L 515.92,579.156 C 557.227,579.156 578.149,558.841 578.149,516.927 L 578.149,66.804 C 578.149,24.203 557.227,1.768 514.628,1.768 C 514.624,1.768 66.133,1.625 66.275,1.768 z "
       style="fill:#111;stroke:#eee;stroke-width:3.40799999"
       id="path1329" />
  </g>
  <rect
     style="fill:#ffffff;fill-opacity:1;stroke:#ffffff;stroke-width:20.94757652;stroke-linecap:square;stroke-linejoin:miter;stroke-miterlimit:4;stroke-dasharray:none;stroke-opacity:1"
     id="rect2996"
     width="11.793165"
     height="467.50745"
     x="73.346817"
     y="56.246273" />
  <path
     style="fill:#ffffff;fill-opacity:1;fill-rule:evenodd;stroke:none;stroke-width:1px;stroke-linecap:butt;stroke-linejoin:miter;stroke-opacity:1"
     d="M 77.95768,51.756614 L 257.39682,118.5291 L 78.29184,191.43915 L 77.95768,51.756614 z"
     id="path2998"
     sodipodi:nodetypes="cccc" />
  <path
     transform="matrix(4.0375831,0,0,4.0375831,-822.63179,-683.71826)"
     style="font-size:40px;font-style:normal;font-weight:normal;fill:#ffffff;fill-opacity:1;stroke:none;stroke-width:1px;stroke-linecap:butt;stroke-linejoin:miter;stroke-opacity:1;font-family:Bitstream Vera Sans"
     d="M 299.66943,208.31152 C 299.66936,205.71883 298.73333,203.53402 296.86133,201.75708 C 294.98919,199.98031 292.75677,199.09188 290.16406,199.0918 C 287.57416,199.09188 285.36664,199.98031 283.5415,201.75708 C 281.71625,203.53402 280.80366,205.71883 280.80371,208.31152 C 280.80366,210.90144 281.71625,213.08479 283.5415,214.86157 C 285.36664,216.63849 287.57416,217.52692 290.16406,217.52686 C 292.75677,217.52692 294.98919,216.63849 296.86133,214.86157 C 298.73333,213.08479 299.66936,210.90144 299.66943,208.31152 L 299.66943,208.31152 z M 274.90186,304.21338 C 276.91743,304.21336 278.54926,303.25389 279.79736,301.33496 L 306.86768,260.58008 L 308.30908,266.19629 L 304.2793,296.7251 C 304.08586,298.26024 304.42131,299.6284 305.28564,300.82959 C 306.14982,302.03074 307.34953,302.77488 308.88477,303.06201 C 310.42277,303.3491 311.83927,303.03709 313.13428,302.12598 C 314.42911,301.21483 315.17325,299.99022 315.3667,298.45215 L 319.5415,267.20703 C 319.63809,266.14943 319.54288,265.04494 319.25586,263.89355 L 310.03613,227.17285 L 334.0874,222.85303 C 335.33534,222.66266 336.34315,222.0152 337.11084,220.91064 C 337.87831,219.80622 338.16542,218.62995 337.97217,217.38184 C 337.68495,216.13386 336.96571,215.07771 335.81445,214.21338 L 280.51807,177.78271 L 275.47754,185.12598 C 274.22945,186.85459 274.51802,188.34287 276.34326,189.59082 C 278.0688,190.6456 279.55561,190.35703 280.80371,188.7251 L 283.68652,184.40527 L 328.61182,213.92773 L 291.89551,220.55029 C 290.55072,220.83747 289.4704,221.53327 288.65454,222.6377 C 287.83856,223.74225 287.6225,224.91852 288.00635,226.1665 L 295.92529,257.12598 L 270.00635,295.86377 C 269.52584,296.72508 269.2856,297.63622 269.28564,298.59717 C 269.2856,300.13231 269.83785,301.45213 270.94238,302.55664 C 272.04683,303.66111 273.36665,304.21336 274.90186,304.21338 L 274.90186,304.21338 z"
     id="flowRoot2383" />
</svg>

<svg xmlns="http://www.w3.org/2000/svg" viewBox="0 0 580 580"><path d="m66.28 1.768c-41.34 0-64.57 21.371-64.57 65.04v450.12c0 40.844 20.895 62.23 62.19 62.23h452.02c41.31 0 62.23-20.315 62.23-62.23v-450.12c0-42.601-20.922-65.04-63.52-65.04-.004 0-448.5-.143-448.35 0z" fill="#111" stroke="#eee" stroke-width="3.408"/><g fill="#fff"><path stroke="#fff" stroke-linecap="square" stroke-width="20.948" d="m73.35 56.25h11.793v467.51h-11.793z"/><path d="m77.958 51.757l179.44 66.772-179.1 72.91-.334-139.68" fill-rule="evenodd"/><path transform="matrix(4.0376 0 0 4.0376-822.63-683.72)" d="m299.67 208.31c0-2.593-.936-4.778-2.808-6.554-1.872-1.777-4.105-2.665-6.697-2.665-2.59 0-4.797.889-6.623 2.665-1.825 1.777-2.738 3.962-2.738 6.554 0 2.59.913 4.773 2.738 6.55 1.825 1.777 4.03 2.665 6.623 2.665 2.593 0 4.825-.888 6.697-2.665 1.872-1.777 2.808-3.96 2.808-6.55m-24.768 95.9c2.02 0 3.647-.959 4.896-2.878l27.07-40.755 1.441 5.616-4.03 30.529c-.193 1.535.142 2.903 1.01 4.104.864 1.201 2.064 1.945 3.599 2.232 1.538.287 2.954-.025 4.25-.936 1.295-.911 2.039-2.136 2.232-3.674l4.175-31.25c.097-1.058.0001-2.162-.286-3.313l-9.22-36.721 24.05-4.32c1.248-.19 2.256-.838 3.02-1.942.767-1.104 1.055-2.281.861-3.529-.287-1.248-1.01-2.304-2.158-3.168l-55.3-36.431-5.04 7.343c-1.248 1.729-.96 3.217.866 4.465 1.726 1.055 3.212.766 4.46-.866l2.883-4.32 44.925 29.522-36.716 6.623c-1.345.287-2.425.983-3.241 2.087-.816 1.105-1.032 2.281-.648 3.529l7.919 30.959-25.919 38.738c-.481.861-.721 1.772-.721 2.733 0 1.535.552 2.855 1.657 3.959 1.104 1.104 2.424 1.657 3.959 1.657"/></g></svg>
